apps/transport/client/images/icons/car.svg

<svg viewBox="0 0 20 16" xmlns="http://www.w3.org/2000/svg" fill-rule="evenodd" clip-rule="evenodd" stroke-linecap="round" stroke-linejoin="round" stroke-miterlimit="1.5"><g fill="none" stroke="#26353f"><path d="M19.5 7.4a.9.9 0 0 0-.9-.9H1.4a.9.9 0 0 0-.9.9v4.2a.9.9 0 0 0 .9.9h17.2a.9.9 0 0 0 .9-.9V7.4z"/><path d="M4.813 13.125a.626.626 0 0 0-.625-.625h-1.25a.625.625 0 0 0-.625.625v1.25c0 .345.28.625.625.625h1.25c.344 0 .625-.28.625-.625v-1.25zM17.688 13.125a.626.626 0 0 0-.625-.625h-1.25a.625.625 0 0 0-.625.625v1.25c0 .345.28.625.625.625h1.25c.344 0 .625-.28.625-.625v-1.25z"/><circle cx="3.125" cy="9.5" r="1"/><circle cx="16.875" cy="9.5" r="1"/><path d="M18 6.5H2l1.397-5.237c.12-.45.527-.763.992-.763h11.253c.447 0 .838.301.953.732L18 6.5zM3.5 2.5h13M7.5 9.5h5"/></g></svg>

<?xml version="1.0" encoding="UTF-8" standalone="no"?>
<svg
   xmlns:dc="http://purl.org/dc/elements/1.1/"
   xmlns:cc="http://creativecommons.org/ns#"
   xmlns:rdf="http://www.w3.org/1999/02/22-rdf-syntax-ns#"
   xmlns:svg="http://www.w3.org/2000/svg"
   xmlns="http://www.w3.org/2000/svg"
   xmlns:sodipodi="http://sodipodi.sourceforge.net/DTD/sodipodi-0.dtd"
   xmlns:inkscape="http://www.inkscape.org/namespaces/inkscape"
   viewBox="0 0 20 16"
   fill-rule="evenodd"
   clip-rule="evenodd"
   stroke-linecap="round"
   stroke-linejoin="round"
   stroke-miterlimit="1.5"
   version="1.1"
   id="svg14"
   sodipodi:docname="car.svg"
   inkscape:version="0.92.3 (2405546, 2018-03-11)">
  <metadata
     id="metadata20">
    <rdf:RDF>
      <cc:Work
         rdf:about="">
        <dc:format>image/svg+xml</dc:format>
        <dc:type
           rdf:resource="http://purl.org/dc/dcmitype/StillImage" />
      </cc:Work>
    </rdf:RDF>
  </metadata>
  <defs
     id="defs18" />
  <sodipodi:namedview
     pagecolor="#ffffff"
     bordercolor="#666666"
     borderopacity="1"
     objecttolerance="10"
     gridtolerance="10"
     guidetolerance="10"
     inkscape:pageopacity="0"
     inkscape:pageshadow="2"
     inkscape:window-width="1853"
     inkscape:window-height="1025"
     id="namedview16"
     showgrid="false"
     inkscape:zoom="17.274398"
     inkscape:cx="2.4458009"
     inkscape:cy="9.7317217"
     inkscape:window-x="67"
     inkscape:window-y="27"
     inkscape:window-maximized="1"
     inkscape:current-layer="svg14" />
  <g
     id="g12"
     transform="matrix(0.80658337,0,0,0.89869401,1.8985078,1.0420045)"
     style="fill:none;stroke:#26353f">
    <path
       d="M 19.5,7.4 A 0.9,0.9 0 0 0 18.6,6.5 H 1.4 A 0.9,0.9 0 0 0 0.5,7.4 v 4.2 a 0.9,0.9 0 0 0 0.9,0.9 h 17.2 a 0.9,0.9 0 0 0 0.9,-0.9 V 7.4 Z"
       id="path2"
       inkscape:connector-curvature="0" />
    <path
       d="M 4.813,13.125 A 0.626,0.626 0 0 0 4.188,12.5 h -1.25 a 0.625,0.625 0 0 0 -0.625,0.625 v 1.25 C 2.313,14.72 2.593,15 2.938,15 h 1.25 c 0.344,0 0.625,-0.28 0.625,-0.625 z m 12.875,0 A 0.626,0.626 0 0 0 17.063,12.5 h -1.25 a 0.625,0.625 0 0 0 -0.625,0.625 v 1.25 c 0,0.345 0.28,0.625 0.625,0.625 h 1.25 c 0.344,0 0.625,-0.28 0.625,-0.625 z"
       id="path4"
       inkscape:connector-curvature="0" />
    <circle
       cx="3.125"
       cy="9.5"
       r="1"
       id="circle6" />
    <circle
       cx="16.875"
       cy="9.5"
       r="1"
       id="circle8" />
    <path
       d="M 18,6.5 H 2 L 3.397,1.263 C 3.517,0.813 3.924,0.5 4.389,0.5 h 11.253 c 0.447,0 0.838,0.301 0.953,0.732 z M 3.5,2.5 h 13 m -9,7 h 5"
       id="path10"
       inkscape:connector-curvature="0" />
  </g>
</svg>
